src/assets/svg/covid-animation-2.svg

<svg viewBox="0 0 80 80" xmlns="http://www.w3.org/2000/svg"><path d="m31 28a3 3 0 1 1 -3-3 3 3 0 0 1 3 3zm9-4a4 4 0 1 0 4 4 4 4 0 0 0 -4-4zm-12 12a4 4 0 1 0 4 4 4 4 0 0 0 -4-4zm12-1a5 5 0 1 0 5 5 5 5 0 0 0 -5-5zm-24-9a2 2 0 1 0 2 2 2 2 0 0 0 -2-2zm-12 10a4 4 0 1 0 4 4 4 4 0 0 0 -4-4zm12 1a3 3 0 1 0 3 3 3 3 0 0 0 -3-3zm24-37a4 4 0 1 0 4 4 4 4 0 0 0 -4-4zm-12 14a2 2 0 1 0 2 2 2 2 0 0 0 -2-2zm12-1a3 3 0 1 0 3 3 3 3 0 0 0 -3-3zm36 23a4 4 0 1 0 4 4 4 4 0 0 0 -4-4zm-24-11a3 3 0 1 0 3 3 3 3 0 0 0 -3-3zm12 1a2 2 0 1 0 2 2 2 2 0 0 0 -2-2zm-12 10a4 4 0 1 0 4 4 4 4 0 0 0 -4-4zm12 1a3 3 0 1 0 3 3 3 3 0 0 0 -3-3zm-12-23a2 2 0 1 0 2 2 2 2 0 0 0 -2-2zm-12 58a4 4 0 1 0 4 4 4 4 0 0 0 -4-4zm-12-23a3 3 0 1 0 3 3 3 3 0 0 0 -3-3zm12-1a4 4 0 1 0 4 4 4 4 0 0 0 -4-4zm-12 14a2 2 0 1 0 2 2 2 2 0 0 0 -2-2zm12-1a3 3 0 1 0 3 3 3 3 0 0 0 -3-3zm-24-11a2 2 0 1 0 2 2 2 2 0 0 0 -2-2zm36-1a3 3 0 1 0 3 3 3 3 0 0 0 -3-3zm12 1a2 2 0 1 0 2 2 2 2 0 0 0 -2-2zm-12 12a2 2 0 1 0 2 2 2 2 0 0 0 -2-2z"/></svg>

<svg id="Layer_1" data-name="Layer 1" xmlns="http://www.w3.org/2000/svg" viewBox="0 0 80 80"><path d="M31,28a3,3,0,1,1-3-3A3,3,0,0,1,31,28Zm9-4a4,4,0,1,0,4,4A4,4,0,0,0,40,24ZM28,36a4,4,0,1,0,4,4A4,4,0,0,0,28,36Zm12-1a5,5,0,1,0,5,5A5,5,0,0,0,40,35ZM16,26a2,2,0,1,0,2,2A2,2,0,0,0,16,26ZM4,36a4,4,0,1,0,4,4A4,4,0,0,0,4,36Zm12,1a3,3,0,1,0,3,3A3,3,0,0,0,16,37ZM40,0a4,4,0,1,0,4,4A4,4,0,0,0,40,0ZM28,14a2,2,0,1,0,2,2A2,2,0,0,0,28,14Zm12-1a3,3,0,1,0,3,3A3,3,0,0,0,40,13ZM76,36a4,4,0,1,0,4,4A4,4,0,0,0,76,36ZM52,25a3,3,0,1,0,3,3A3,3,0,0,0,52,25Zm12,1a2,2,0,1,0,2,2A2,2,0,0,0,64,26ZM52,36a4,4,0,1,0,4,4A4,4,0,0,0,52,36Zm12,1a3,3,0,1,0,3,3A3,3,0,0,0,64,37ZM52,14a2,2,0,1,0,2,2A2,2,0,0,0,52,14ZM40,72a4,4,0,1,0,4,4A4,4,0,0,0,40,72ZM28,49a3,3,0,1,0,3,3A3,3,0,0,0,28,49Zm12-1a4,4,0,1,0,4,4A4,4,0,0,0,40,48ZM28,62a2,2,0,1,0,2,2A2,2,0,0,0,28,62Zm12-1a3,3,0,1,0,3,3A3,3,0,0,0,40,61ZM16,50a2,2,0,1,0,2,2A2,2,0,0,0,16,50Zm36-1a3,3,0,1,0,3,3A3,3,0,0,0,52,49Zm12,1a2,2,0,1,0,2,2A2,2,0,0,0,64,50ZM52,62a2,2,0,1,0,2,2A2,2,0,0,0,52,62Z"/></svg>
